!!!SOCIAL_FUNCTION:	songs connected with legends of manabus
!!!PDT:	1932
!!!OTL: No_78_Funeral_Song_(b).krn
!!!REG: Wisconsin
!!!LANG: Non-Tone
!!!LING_GROUP: Algonquin
**kern
*staff1
=1-
*clefF4
*k[f#c#g#d#]
*M3/4
2r
8r
16r
16c#\
=2!|:
4B\
4B\
12B\L
12c#\
12c#\J
=3||
*M2/4
4B\
8B\L
16B\L
16B\JJ
=4
4B\
12B\L
12A\
12G#\J
=5
4F#\
8F#\
16r
16A\
=6||
*M3/4
4A\
4A\
12A\L
12B\
12B\J
=7||
*M2/4
4A\
16A\
16r
16B\LL
16B\JJ
=8
4B\
12B\L
12A\
12G#\J
=9
4F#\
8.F#\L
16E\Jk
=10||
*M3/4
4E\
4E\
16E\
16r
16F#\LL
16F#\JJ
=11
=
*M2/4
4E\
8E\
24E\LL
24F#\
24F#\JJ
=12
4E\
12E\L
12D#\
12C#\J
=13
4BB/
8BB/
16r
16F#\
=14||
*M3/4
4E\
4E\
24E\
24r
12F#\L
12F#\J
=15
4E\
4E\
24E\
24r
12G#\L
12F#\J
=16
=
*M2/4
4E\
12E\L
12D#\
12C#\J
=17
4BB/
8BB/
16r
16C#/
=18||
*M3/4
4C#/
4C#/
12C#/L
12C#/
12C#/J
=19||
*M2/4
4BB/
4BB/
=20
4BB/
8r
16r
16c#\
=21:|!
4BB/
4r
==
*-
